X:1
T:Tutti à l'armi
T:Tutti à l'armi
T:Claudio Saracini
T:Source : Le terze Musiche per cantar e sonar---Venetia---A.Vincenti---1620. Editor : André Vierendeels (16/01/16).
T:Notes : Original clefs : C1, F4 Editorial accidentals above the staff The original print was damaged (perhaps during WWII), necessitating an editorial addendum m 21 
T:©
T:©
T:©
C:Claudio Saracini
Z:©
%%score 1 2
L:1/8
Q:1/4=120
M:4/4
K:F
V:1 treble nm="Soprano" snm="S"
V:2 bass nm="MusicXML Part"
V:1
 dd d2 B>B B2 | B2 ff f2 d>d | d4 d4 | z2 AB c2 cd | _e2 ee d4 | c8 | z2 cd _e2 Bc | d6 Bc | A8 | %9
w: Tut- ti'à l'ar- mi d'A- mo-|re, tut- ti'à l'ar- mi d'A-|mo- re,|all' im- pre- s'all' im-|pre- sa'o- gni co-|re,|all' im- pre- s'all' im-|pre- sa'o- gni|co-|
 G8 :: AGAB c2 d2 | B2 c2 d4 | d4 f2 _e2 | d2 cB A4 | c6 GF | G8 | F8 :: z2 AB c2 FG | %18
w: re.|Hor _ _ _ che per|l'a- ria'in- tor-|no, suo- na|Don- na gen- til|à no- bil|co-|re.|Tu tu tu ri- so-|
 A>A GF>FG A>A | B c2 c z2 de | f2 Bc d>d cB- | B/B/c d>d e f2 f |"^b" z fe d3 cB | A2 c4 GF | %24
w: nan- do la trom- ba so- nan- do|la trom- ba, tu tu|tu ri- so- nan- do la trom-|* ba so- nan- do la trom- ba,|tan ta ta- ra bel-|ta l'a- ria rim-|
 G4 F4 | z dc B3 AG | ^F2 d4 AG | A8 | G8 :| %29
w: bom- ba,|tan ta ta- ra bel-|ta l'a- ria rim-|bom-|ba.|
V:2
"^BC" G,,8 | G,,2 A,,2 B,,4 | B,,4 B,,4 | F,,6 C,2- | C,4 G,,4 | C,8 | C,6 G,,2 | G,,4 D,4- | D,8 | %9
 G,,8 :: F,,4 F,2 D,2 | _E,2 C,2 B,,4 | B,,6 C,2 | D,2 E,2 F,4 | A,,2 B,,2 C,4- | C,8 | F,,8 :: %17
 F,,8 | F,,8 | F,,4 B,,4 | B,,8- | B,,4 B,,4 | B,,4 F,,4- | F,,4 A,,B,, C,2- | C,4 F,,4 | %25
 G,,4 D,4- | D,8 | D,,8 | G,,8 :| %29

